X: 36056
T: Scartaglen, The
R: reel
M: 4/4
K: Gmajor
G2 {c}AG B/c/dge|dcBG ADFA|G2 B/A/G Bdge|dcBA G2B/c/d|
g3 d e2 ge|dcBG ADFA|G2 {c}AG B/c/dge|dBAc BGGe||
dgbg agbg|dgbg ageg|dggg agbg|dBGA BAAB|
dgbg agbg|dgbg ageg|c'3 a b2 {c'}b a|gedB {c}BAAB||

